imgs/insgtram.svg

<svg width="19" height="20" viewBox="0 0 19 20" fill="none" xmlns="http://www.w3.org/2000/svg">
<path fill-rule="evenodd" clip-rule="evenodd" d="M5.3875 0.888496C6.365 0.843496 6.67667 0.833496 9.16667 0.833496C11.6567 0.833496 11.9683 0.844329 12.945 0.888496C13.9217 0.932663 14.5883 1.0885 15.1717 1.31433C15.7825 1.54516 16.3367 1.906 16.795 2.37266C17.2617 2.83016 17.6217 3.3835 17.8517 3.99516C18.0783 4.5785 18.2333 5.24516 18.2783 6.22016C18.3233 7.19933 18.3333 7.511 18.3333 10.0002C18.3333 12.4902 18.3225 12.8018 18.2783 13.7793C18.2342 14.7543 18.0783 15.421 17.8517 16.0043C17.6217 16.6161 17.2611 17.1703 16.795 17.6285C16.3367 18.0952 15.7825 18.4552 15.1717 18.6852C14.5883 18.9118 13.9217 19.0668 12.9467 19.1118C11.9683 19.1568 11.6567 19.1668 9.16667 19.1668C6.67667 19.1668 6.365 19.156 5.3875 19.1118C4.4125 19.0677 3.74583 18.9118 3.1625 18.6852C2.55077 18.4551 1.99652 18.0945 1.53833 17.6285C1.07198 17.1707 0.711096 16.6167 0.480833 16.0052C0.255 15.4218 0.1 14.7552 0.055 13.7802C0.00999998 12.801 0 12.4893 0 10.0002C0 7.51016 0.0108333 7.1985 0.055 6.22183C0.0991666 5.24516 0.255 4.5785 0.480833 3.99516C0.711436 3.38356 1.0726 2.82959 1.53917 2.37183C1.9967 1.90558 2.55039 1.5447 3.16167 1.31433C3.745 1.0885 4.41167 0.933496 5.38667 0.888496H5.3875ZM12.8708 2.5385C11.9042 2.49433 11.6142 2.48516 9.16667 2.48516C6.71917 2.48516 6.42917 2.49433 5.4625 2.5385C4.56833 2.57933 4.08333 2.7285 3.76 2.85433C3.3325 3.021 3.02667 3.2185 2.70583 3.53933C2.4017 3.83521 2.16765 4.1954 2.02083 4.5935C1.895 4.91683 1.74583 5.40183 1.705 6.296C1.66083 7.26266 1.65167 7.55266 1.65167 10.0002C1.65167 12.4477 1.66083 12.7377 1.705 13.7043C1.74583 14.5985 1.895 15.0835 2.02083 15.4068C2.1675 15.8043 2.40167 16.1652 2.70583 16.461C3.00167 16.7652 3.3625 16.9993 3.76 17.146C4.08333 17.2718 4.56833 17.421 5.4625 17.4618C6.42917 17.506 6.71833 17.5152 9.16667 17.5152C11.615 17.5152 11.9042 17.506 12.8708 17.4618C13.765 17.421 14.25 17.2718 14.5733 17.146C15.0008 16.9793 15.3067 16.7818 15.6275 16.461C15.9317 16.1652 16.1658 15.8043 16.3125 15.4068C16.4383 15.0835 16.5875 14.5985 16.6283 13.7043C16.6725 12.7377 16.6817 12.4477 16.6817 10.0002C16.6817 7.55266 16.6725 7.26266 16.6283 6.296C16.5875 5.40183 16.4383 4.91683 16.3125 4.5935C16.1458 4.166 15.9483 3.86016 15.6275 3.53933C15.3316 3.23522 14.9714 3.00117 14.5733 2.85433C14.25 2.7285 13.765 2.57933 12.8708 2.5385ZM7.99583 12.826C8.64972 13.0982 9.37781 13.1349 10.0558 12.9299C10.7337 12.7249 11.3195 12.2909 11.713 11.702C12.1065 11.1131 12.2834 10.4059 12.2134 9.70108C12.1434 8.99628 11.8308 8.33764 11.3292 7.83766C11.0094 7.51806 10.6227 7.27334 10.1969 7.12112C9.77121 6.9689 9.31702 6.91296 8.86708 6.95734C8.41713 7.00172 7.98263 7.14531 7.59484 7.37777C7.20705 7.61023 6.87562 7.92578 6.62442 8.3017C6.37322 8.67763 6.20849 9.10457 6.1421 9.5518C6.0757 9.99902 6.10929 10.4554 6.24045 10.8881C6.37161 11.3208 6.59707 11.719 6.9006 12.0541C7.20413 12.3892 7.57819 12.6528 7.99583 12.826ZM5.835 6.6685C6.27252 6.23097 6.79193 5.88391 7.36358 5.64713C7.93523 5.41035 8.54792 5.28847 9.16667 5.28847C9.78541 5.28847 10.3981 5.41035 10.9698 5.64713C11.5414 5.88391 12.0608 6.23097 12.4983 6.6685C12.9359 7.10602 13.2829 7.62543 13.5197 8.19708C13.7565 8.76873 13.8784 9.38141 13.8784 10.0002C13.8784 10.6189 13.7565 11.2316 13.5197 11.8032C13.2829 12.3749 12.9359 12.8943 12.4983 13.3318C11.6147 14.2154 10.4163 14.7119 9.16667 14.7119C7.91705 14.7119 6.71861 14.2154 5.835 13.3318C4.95139 12.4482 4.45498 11.2498 4.45498 10.0002C4.45498 8.75054 4.95139 7.55211 5.835 6.6685ZM14.9233 5.99016C15.0318 5.88789 15.1185 5.7649 15.1786 5.62847C15.2386 5.49205 15.2707 5.34497 15.2728 5.19594C15.275 5.04691 15.2473 4.89895 15.1912 4.76084C15.1352 4.62272 15.052 4.49725 14.9466 4.39186C14.8412 4.28647 14.7158 4.20329 14.5777 4.14726C14.4395 4.09123 14.2916 4.06348 14.1426 4.06565C13.9935 4.06782 13.8464 4.09987 13.71 4.15991C13.5736 4.21994 13.4506 4.30674 13.3483 4.41516C13.1494 4.62602 13.0405 4.9061 13.0448 5.19594C13.049 5.48578 13.166 5.76256 13.371 5.96753C13.5759 6.1725 13.8527 6.28952 14.1426 6.29374C14.4324 6.29797 14.7125 6.18907 14.9233 5.99016Z" fill="#141516"/>
</svg>

<svg width="19" height="20" fill="none" xmlns="http://www.w3.org/2000/svg"><path fill-rule="evenodd" clip-rule="evenodd" d="M5.388.888C6.365.843 6.676.833 9.166.833s2.801.011 3.778.055c.977.045 1.643.2 2.227.426a4.51 4.51 0 0 1 1.623 1.059c.467.457.827 1.01 1.057 1.622.226.583.381 1.25.426 2.225.045.98.055 1.291.055 3.78 0 2.49-.01 2.802-.055 3.78-.044.974-.2 1.641-.426 2.224a4.496 4.496 0 0 1-1.057 1.624 4.494 4.494 0 0 1-1.623 1.057c-.584.227-1.25.382-2.225.427-.979.045-1.29.055-3.78.055-2.49 0-2.802-.011-3.78-.055-.974-.044-1.641-.2-2.224-.427a4.5 4.5 0 0 1-1.625-1.056 4.494 4.494 0 0 1-1.057-1.624C.255 15.422.1 14.755.055 13.78.01 12.801 0 12.49 0 10 0 7.51.01 7.2.055 6.222c.044-.977.2-1.644.426-2.227a4.497 4.497 0 0 1 1.058-1.623 4.493 4.493 0 0 1 1.623-1.058c.583-.226 1.25-.38 2.225-.426Zm7.483 1.65c-.967-.044-1.257-.053-3.704-.053-2.448 0-2.738.01-3.704.054-.895.04-1.38.19-1.703.315a2.847 2.847 0 0 0-1.054.685 2.843 2.843 0 0 0-.685 1.054c-.126.324-.275.809-.316 1.703-.044.967-.053 1.257-.053 3.704 0 2.448.009 2.738.053 3.704.04.894.19 1.38.316 1.703.147.397.38.758.685 1.054.296.304.656.538 1.054.685.323.126.808.275 1.703.316.966.044 1.255.053 3.704.053 2.448 0 2.737-.009 3.704-.053.894-.041 1.379-.19 1.702-.316a2.847 2.847 0 0 0 1.054-.685c.305-.296.539-.657.685-1.054.126-.323.275-.809.316-1.703.044-.966.054-1.256.054-3.704 0-2.447-.01-2.737-.054-3.704-.04-.894-.19-1.38-.316-1.703a2.847 2.847 0 0 0-.685-1.054 2.844 2.844 0 0 0-1.054-.685c-.323-.126-.808-.275-1.702-.316ZM7.996 12.826a3.057 3.057 0 1 0 2.2-5.705 3.058 3.058 0 0 0-2.2 5.705ZM5.835 6.668a4.711 4.711 0 1 1 6.663 6.663A4.711 4.711 0 0 1 5.835 6.67Zm9.088-.678a1.114 1.114 0 1 0-1.528-1.62 1.114 1.114 0 0 0 1.528 1.62Z" fill="#141516"/></svg>
